svg/beer-twotone-loop.svg

<svg xmlns="http://www.w3.org/2000/svg" width="24" height="24" viewBox="0 0 24 24">
	<mask id="beer-mask">
		<path d="M18 7c-2 0 -3 2 -5 2c-2 0 -3 -2 -5 -2c-2 0 -3 2 -5 2c-2 0 -3 -2 -5 -2c-2 0 -3 2 -5 2" fill="none" stroke="#fff" stroke-width="2" opacity="0">
			<animateMotion path="M0 0h10" dur="3s" calcMode="linear" repeatCount="indefinite" />
			<animate attributeName="opacity" values="0;1" begin="0.7s" dur="0.4s" fill="freeze" />
		</path>
	</mask>
	<path d="M17 8L16 21H7L6 8z" fill="currentColor" fill-opacity="0">
		<animate attributeName="fill-opacity" values="0;0.3" begin="1.1s" dur="0.15s" fill="freeze" />
	</path>
	<path d="M18 3l-2 18h-9l-2 -18Z" fill="none" stroke="currentColor" stroke-width="2" stroke-dasharray="64" stroke-dashoffset="64" stroke-linecap="round" stroke-linejoin="round">
		<animate attributeName="stroke-dashoffset" values="64;0" dur="0.6s" fill="freeze" />
	</path>
	<path d="M18 3l-2 18h-9l-2 -18Z" fill="currentColor" mask="url(#beer-mask)" />
</svg>

<svg xmlns="http://www.w3.org/2000/svg" width="24" height="24" viewBox="0 0 24 24">
	<mask id="beer-mask">
		<path d="M18 7C16 7 15 9 13 9C11 9 10 7 8 7C6 7 5 9 3 9C1 9 0 7 -2 7C-4 7 -5 9 -7 9" stroke="#fff" stroke-width="2" opacity="0">
			<animateMotion path="M0 0h10" calcMode="linear" dur="3s" repeatCount="indefinite" />
			<animate attributeName="opacity" values="0;1" begin="0.6s" dur="0.5s" fill="freeze" />
		</path>
	</mask>
	<path d="M17 8L16 21H7L6 8z" fill="currentColor" fill-opacity="0">
		<animate attributeName="fill-opacity" values="0;0.3" begin="1.1s" dur="0.15s" fill="freeze" />
	</path>
	<path d="M18 3L16 21H7L5 3z" fill="none" stroke="currentColor" stroke-width="2" stroke-linecap="round" stroke-linejoin="round" stroke-dasharray="60" stroke-dashoffset="60">
		<animate attributeName="stroke-dashoffset" values="60;0" dur="0.6s" fill="freeze" />
	</path>
	<path d="M18 3L16 21H7L5 3z" fill="currentColor" mask="url(#beer-mask)" />
</svg>
